packages/dnb-ui-lib/assets/icons/bowling_medium.svg

<svg width="24" height="24" viewBox="0 0 24 24" fill="none" xmlns="http://www.w3.org/2000/svg">
<path d="M17.5 15.5C17.5 16.1904 16.9404 16.75 16.25 16.75C15.5596 16.75 15 16.1904 15 15.5C15 14.8096 15.5596 14.25 16.25 14.25C16.9404 14.25 17.5 14.8096 17.5 15.5Z" fill="black"/>
<path d="M21.25 14.75C21.25 15.4404 20.6904 16 20 16C19.3096 16 18.75 15.4404 18.75 14.75C18.75 14.0596 19.3096 13.5 20 13.5C20.6904 13.5 21.25 14.0596 21.25 14.75Z" fill="black"/>
<path d="M18.25 11.75C18.25 12.4404 17.6904 13 17 13C16.3096 13 15.75 12.4404 15.75 11.75C15.75 11.0596 16.3096 10.5 17 10.5C17.6904 10.5 18.25 11.0596 18.25 11.75Z" fill="black"/>
<path d="M8.25 8.25V3C8.25 2.40326 8.01295 1.83097 7.59099 1.40901C7.16903 0.987053 6.59674 0.75 6 0.75C5.40326 0.75 4.83097 0.987053 4.40901 1.40901C3.98705 1.83097 3.75 2.40326 3.75 3V8.25M8.25 8.25C10.1259 10.3038 11.192 12.969 11.25 15.75C11.2034 18.2749 10.321 20.713 8.741 22.683C8.60049 22.8599 8.42183 23.0028 8.21837 23.1009C8.01491 23.1991 7.79191 23.2501 7.566 23.25H4.434C4.20809 23.2501 3.98509 23.1991 3.78163 23.1009C3.57817 23.0028 3.39951 22.8599 3.259 22.683C1.679 20.713 0.796642 18.2749 0.75 15.75C0.808026 12.969 1.87412 10.3038 3.75 8.25M8.25 8.25H3.75M12.461 22.492C13.6044 23.0488 14.8706 23.3057 16.1406 23.2385C17.4106 23.1714 18.6427 22.7824 19.721 22.1081C20.7993 21.4339 21.6884 20.4965 22.3048 19.3841C22.9212 18.2716 23.2446 17.0208 23.2446 15.749C23.2446 14.4772 22.9212 13.2264 22.3048 12.1139C21.6884 11.0015 20.7993 10.0641 19.721 9.38988C18.6427 8.71561 17.4106 8.32661 16.1406 8.25946C14.8706 8.19231 13.6044 8.44921 12.461 9.006M8.25 5.25H3.75" stroke="black" stroke-width="1.5" stroke-linecap="round" stroke-linejoin="round"/>
</svg>

<svg width="24" height="24" viewBox="0 0 24 24" fill="none" xmlns="http://www.w3.org/2000/svg"><path d="M17.5 15.5a1.25 1.25 0 11-2.5 0 1.25 1.25 0 012.5 0zM21.25 14.75a1.25 1.25 0 11-2.5 0 1.25 1.25 0 012.5 0zM18.25 11.75a1.25 1.25 0 11-2.5 0 1.25 1.25 0 012.5 0z" fill="#000"/><path d="M8.25 8.25V3a2.25 2.25 0 10-4.5 0v5.25m4.5 0a11.476 11.476 0 013 7.5 11.418 11.418 0 01-2.509 6.933 1.499 1.499 0 01-1.175.567H4.434a1.5 1.5 0 01-1.175-.567A11.418 11.418 0 01.75 15.75a11.476 11.476 0 013-7.5m4.5 0h-4.5m8.711 14.242a7.5 7.5 0 100-13.486M8.25 5.25h-4.5" stroke="#000" stroke-width="1.5" stroke-linecap="round" stroke-linejoin="round"/></svg>
